X:1
T:Title
%%score { ( 1 3 ) | ( 2 4 ) }
L:1/8
M:4/4
K:A
V:1 treble nm="Grand Piano"
V:3 treble 
V:2 bass 
V:4 bass 
V:1
 z4 z2[Q:1/4=100] [CE]2 | [Cc]3 [CG] [DB][DA][G,DG][A,DF] | E2- [CE-][DE] E2 [A,EA]2 | %3
 [B,EG]3 [CEA] [DGB]2 [=Gc]2 |[M:3/4] [Gd]6 |[M:1/4] [DE]2 | %6
[M:4/4] [Cc]3 [CG] [DB][DA][G,DG][A,DF] | E2- [CE-][DE] E2 [CEA]2 | [DGB]3 [=Gc] [^Gd]2 [DEG]2 | %9
[M:3/4] [CEA]6 |[M:1/4] [A,CA]2 |[M:4/4] B3 A GF [G,DE]2 | [A,A]2- [A,EA]B c4 | B2 B>B [^Ac]2 ^d2 | %14
[M:7/8] [Ge]-[Ge]-[Ge]- [Ge]- [Ge]3 |[M:1/4] [Gd]2 |[M:4/4] [Ac]3 [Ee] [EA][Ec][EB][EA] | %17
 z2 E2 [Dd]2 [B,FB]2 | [CEA]3 [EAc] [EGc]2 .[DGB]2 |[M:3/4] [CEA]6 |] %20
V:2
 z4 z2 [A,,E,]2 | [A,,E,]3 [A,,^E,] [A,,F,][A,,F,]A,,A,, | z2 A,B, C2 C,2 | E,3 E, E,2 [E,^A,C]2 | %4
[M:3/4] [E,B,]6 |[M:1/4] [E,G,]2 |[M:4/4] [A,,E,]3 [A,,^E,] [A,,F,][A,,F,]A,,A,, | %7
 z2 A,B, C2 A,,2 | E,3 [E,^A,C] [E,B,]2 E,2 |[M:3/4] A,,6 |[M:1/4] A,,2 |[M:4/4] z4 [E,D]2 z2 | %12
 A,,2 C,[E,G,E][K:treble] [A,E]4 | [G,B,E]2 [G,EG]>[K:bass][=G,E] [F,E]2 [B,A]2 | %14
[M:7/8] B,2 z z z z2 |[M:1/4] [^E,B,]2 |[M:4/4] [F,A,]3 [G,B,] [A,C][A,,A,][B,,G,][C,A,] | %17
 [D,A,]2 [C,^A,]2 [B,,B,]2 D,2 | E,3 E, E,2 z E |[M:3/4] A,,6 |] %20
V:3
 x8 | x8 | [A,C]2 z2 z4 | x8 |[M:3/4] x6 |[M:1/4] x2 |[M:4/4] x8 | [A,C]2 z2 z4 | x8 |[M:3/4] x6 | %10
[M:1/4] x2 |[M:4/4] x8 | C2 z2 z4 | x8 |[M:7/8] z2 B, C D3 |[M:1/4] x2 |[M:4/4] x8 | F4 z4 | x8 | %19
[M:3/4] x6 |] %20
V:4
 x8 | x8 | A,,6 z2 | x8 |[M:3/4] x6 |[M:1/4] x2 |[M:4/4] x8 | A,,6 z2 | x8 |[M:3/4] x6 | %10
[M:1/4] x2 |[M:4/4] [E,G,D]3 [E,F,D] B,A, E,2 | x4[K:treble] x4 | x7/2[K:bass] x9/2 | %14
[M:7/8] E,-E,-E,- E,- E,3 |[M:1/4] x2 |[M:4/4] x8 | x8 | z4 z2 E,2 |[M:3/4] x6 |] %20

